!!!COA: des Prez, Josquin
!!!CDT: ~1450-1521/08/27
!!!OTL: Laudate dominum omnes gentes
!!!AGN: Motet
!!!SCT: NJE 17.10
!!!SCA: New Josquin Edition 17.10
!!!voices: 16
**kern	**kern	**kern	**kern	**kern	**kern	**kern	**kern	**kern	**kern	**kern	**kern	**kern	**kern	**kern	**kern
*part16	*part15	*part14	*part13	*part12	*part11	*part10	*part9	*part8	*part7	*part6	*part5	*part4	*part3	*part2	*part1
*staff16	*staff15	*staff14	*staff13	*staff12	*staff11	*staff10	*staff9	*staff8	*staff7	*staff6	*staff5	*staff4	*staff3	*staff2	*staff1
*Ivox	*Ivox	*Ivox	*Ivox	*Ivox	*Ivox	*Ivox	*Ivox	*Ivox	*Ivox	*Ivox	*Ivox	*Ivox	*Ivox	*Ivox	*Ivox
*I"Bassus 4	*I"Tenor 4	*I"Altus 4	*I"Superius 4	*I"Bassus 3	*I"Tenor 3	*I"Altus 3	*I"Superius 3	*I"Bassus 2	*I"Tenor 2	*I"Altus 2	*I"Superius 2	*I"Bassus 1	*I"Tenor 1	*I"Altus 1	*I"Superius 1
*I'B4	*I'T4	*I'A4	*I'S4	*I'B3	*I'T3	*I'A3	*I'S3	*I'B2	*I'T2	*I'A2	*I'S2	*I'B1	*I'T1	*I'A1	*I'S1
*clefF4	*clefGv2	*clefGv2	*clefG2	*clefF4	*clefGv2	*clefGv2	*clefG2	*clefF4	*clefGv2	*clefGv2	*clefG2	*clefF4	*clefGv2	*clefGv2	*clefG2
*k[b-]	*k[b-]	*k[b-]	*k[b-]	*k[b-]	*k[b-]	*k[b-]	*k[b-]	*k[b-]	*k[b-]	*k[b-]	*k[b-]	*k[b-]	*k[b-]	*k[b-]	*k[b-]
*M2/1	*M2/1	*M2/1	*M2/1	*M2/1	*M2/1	*M2/1	*M2/1	*M2/1	*M2/1	*M2/1	*M2/1	*M2/1	*M2/1	*M2/1	*M2/1
*met(C|)	*met(C|)	*met(C|)	*met(C|)	*met(C|)	*met(C|)	*met(C|)	*met(C|)	*met(C|)	*met(C|)	*met(C|)	*met(C|)	*met(C|)	*met(C|)	*met(C|)	*met(C|)
=1	=1	=1	=1	=1	=1	=1	=1	=1	=1	=1	=1	=1	=1	=1	=1
!	!	!	!	!	!	!	!	!	!	!	!	!	!	!	!LO:TX:Z=8:t=16-ex-4 canon at the unison (4 breves)
0r	0r	0r	0r	0r	0r	0r	0r	0r	0r	0r	0r	0G	0G	0d	0g
=2	=2	=2	=2	=2	=2	=2	=2	=2	=2	=2	=2	=2	=2	=2	=2
0r	0r	0r	0r	0r	0r	0r	0r	0r	0r	0r	0r	1G	1G	1d	1g
.	.	.	.	.	.	.	.	.	.	.	.	1G	1G	1d	1g
=3	=3	=3	=3	=3	=3	=3	=3	=3	=3	=3	=3	=3	=3	=3	=3
0r	0r	0r	0r	0r	0r	0r	0r	0r	0r	0r	0r	0D	1.d	0f	0a
.	.	.	.	.	.	.	.	.	.	.	.	.	2d	.	.
=4	=4	=4	=4	=4	=4	=4	=4	=4	=4	=4	=4	=4	=4	=4	=4
0r	0r	0r	0r	0r	0r	0r	0r	0r	0r	0r	0r	0D	0d	0f	0a
=5	=5	=5	=5	=5	=5	=5	=5	=5	=5	=5	=5	=5	=5	=5	=5
0r	0r	0r	0r	0r	0r	0r	0r	0G	0G	0d	0g	0GG	1d	0g	0b-
.	.	.	.	.	.	.	.	.	.	.	.	.	2d	.	.
.	.	.	.	.	.	.	.	.	.	.	.	.	[2B-	.	.
=6	=6	=6	=6	=6	=6	=6	=6	=6	=6	=6	=6	=6	=6	=6	=6
0r	0r	0r	0r	0r	0r	0r	0r	1G	1G	1d	1g	1r	4B-]	0r	1r
.	.	.	.	.	.	.	.	.	.	.	.	.	4c	.	.
.	.	.	.	.	.	.	.	.	.	.	.	.	2d	.	.
.	.	.	.	.	.	.	.	1G	1G	1d	1g	1G	1G	.	1b-
=7	=7	=7	=7	=7	=7	=7	=7	=7	=7	=7	=7	=7	=7	=7	=7
0r	0r	0r	0r	0r	0r	0r	0r	0D	1.d	0f	0a	1F	0r	1r	2a
.	.	.	.	.	.	.	.	.	.	.	.	.	.	.	2.f
.	.	.	.	.	.	.	.	.	.	.	.	2D	.	1f	.
.	.	.	.	.	.	.	.	.	.	.	.	.	.	.	4g
.	.	.	.	.	.	.	.	.	2d	.	.	[2A	.	.	2a
=8	=8	=8	=8	=8	=8	=8	=8	=8	=8	=8	=8	=8	=8	=8	=8
0r	0r	0r	0r	0r	0r	0r	0r	0D	0d	0f	0a	4A]	0r	2f	1d
.	.	.	.	.	.	.	.	.	.	.	.	4G	.	.	.
.	.	.	.	.	.	.	.	.	.	.	.	4F	.	2.d	.
.	.	.	.	.	.	.	.	.	.	.	.	4E	.	.	.
.	.	.	.	.	.	.	.	.	.	.	.	[1D	.	.	2r
.	.	.	.	.	.	.	.	.	.	.	.	.	.	4e	.
.	.	.	.	.	.	.	.	.	.	.	.	.	.	2f	2dd
=9	=9	=9	=9	=9	=9	=9	=9	=9	=9	=9	=9	=9	=9	=9	=9
0r	0r	0r	0r	0G	0G	0d	0g	0GG	1d	0g	0b-	1D]	0r	2.B-	2dd
.	.	.	.	.	.	.	.	.	.	.	.	.	.	.	2.b-
.	.	.	.	.	.	.	.	.	.	.	.	.	.	4c	.
.	.	.	.	.	.	.	.	.	2d	.	.	1GG	.	1d	.
.	.	.	.	.	.	.	.	.	.	.	.	.	.	.	4cc
.	.	.	.	.	.	.	.	.	[2B-	.	.	.	.	.	2dd
=10	=10	=10	=10	=10	=10	=10	=10	=10	=10	=10	=10	=10	=10	=10	=10
0r	0r	0r	0r	1G	1G	1d	1g	1r	4B-]	0r	1r	0GG	0d	2r	1g
.	.	.	.	.	.	.	.	.	4c	.	.	.	.	.	.
.	.	.	.	.	.	.	.	.	2d	.	.	.	.	2G	.
.	.	.	.	1G	1G	1d	1g	1G	1G	.	1b-	.	.	2.B-	1r
.	.	.	.	.	.	.	.	.	.	.	.	.	.	4A	.
=11	=11	=11	=11	=11	=11	=11	=11	=11	=11	=11	=11	=11	=11	=11	=11
0r	0r	0r	0r	0D	1.d	0f	0a	1F	0r	1r	2a	0r	1.d	0F	1r
.	.	.	.	.	.	.	.	.	.	.	2.f	.	.	.	.
.	.	.	.	.	.	.	.	2D	.	1f	.	.	.	.	1a
.	.	.	.	.	.	.	.	.	.	.	4g	.	.	.	.
.	.	.	.	.	2d	.	.	[2A	.	.	2a	.	2A	.	.
=12	=12	=12	=12	=12	=12	=12	=12	=12	=12	=12	=12	=12	=12	=12	=12
0r	0r	0r	0r	0D	0d	0f	0a	4A]	0r	2f	1d	1r	1A	0r	1.a
.	.	.	.	.	.	.	.	4G	.	.	.	.	.	.	.
.	.	.	.	.	.	.	.	4F	.	2.d	.	.	.	.	.
.	.	.	.	.	.	.	.	4E	.	.	.	.	.	.	.
.	.	.	.	.	.	.	.	[1D	.	.	2r	[1D	1r	.	.
.	.	.	.	.	.	.	.	.	.	4e	.	.	.	.	.
.	.	.	.	.	.	.	.	.	.	2f	2dd	.	.	.	2f
=13	=13	=13	=13	=13	=13	=13	=13	=13	=13	=13	=13	=13	=13	=13	=13
0G	0G	0d	0g	0GG	1d	0g	0b-	1D]	0r	2.B-	2dd	2D]	1r	1d	0b-
.	.	.	.	.	.	.	.	.	.	.	2.b-	2D	.	.	.
.	.	.	.	.	.	.	.	.	.	4c	.	.	.	.	.
.	.	.	.	.	2d	.	.	1GG	.	1d	.	2.G	1B-	1d	.
.	.	.	.	.	.	.	.	.	.	.	4cc	.	.	.	.
.	.	.	.	.	[2B-	.	.	.	.	.	2dd	.	.	.	.
.	.	.	.	.	.	.	.	.	.	.	.	4A	.	.	.
=14	=14	=14	=14	=14	=14	=14	=14	=14	=14	=14	=14	=14	=14	=14	=14
1G	1G	1d	1g	1r	4B-]	0r	1r	0GG	0d	2r	1g	2B-	1B-	1B-	0r
.	.	.	.	.	4c	.	.	.	.	.	.	.	.	.	.
.	.	.	.	.	2d	.	.	.	.	2G	.	2BB-	.	.	.
1G	1G	1d	1g	1G	1G	.	1b-	.	.	2.B-	1r	1BB-	1r	1B-	.
.	.	.	.	.	.	.	.	.	.	4A	.	.	.	.	.
=15	=15	=15	=15	=15	=15	=15	=15	=15	=15	=15	=15	=15	=15	=15	=15
0D	1.d	0f	0a	1F	0r	1r	2a	0r	1.d	0F	1r	0r	2r	0f	1.a
.	.	.	.	.	.	.	2.f	.	.	.	.	.	2D	.	.
.	.	.	.	2D	.	1f	.	.	.	.	1a	.	2F	.	.
.	.	.	.	.	.	.	4g	.	.	.	.	.	.	.	.
.	2d	.	.	[2A	.	.	2a	.	2A	.	.	.	[2D	.	2f
=16	=16	=16	=16	=16	=16	=16	=16	=16	=16	=16	=16	=16	=16	=16	=16
0D	0d	0f	0a	4A]	0r	2f	1d	1r	1A	0r	1.a	0r	4D]	1r	0f
.	.	.	.	4G	.	.	.	.	.	.	.	.	4E	.	.
.	.	.	.	4F	.	2.d	.	.	.	.	.	.	4F	.	.
.	.	.	.	4E	.	.	.	.	.	.	.	.	4G	.	.
.	.	.	.	[1D	.	.	2r	[1D	1r	.	.	.	2A	[1d	.
.	.	.	.	.	.	4e	.	.	.	.	.	.	.	.	.
.	.	.	.	.	.	2f	2dd	.	.	.	2f	.	2D	.	.
=17	=17	=17	=17	=17	=17	=17	=17	=17	=17	=17	=17	=17	=17	=17	=17
0GG	1d	0g	0b-	1D]	0r	2.B-	2dd	2D]	1r	1d	0b-	1.G	2r	2d]	1.d
.	.	.	.	.	.	.	2.b-	2D	.	.	.	.	2G	2d	.
.	.	.	.	.	.	4c	.	.	.	.	.	.	.	.	.
.	2d	.	.	1GG	.	1d	.	2.G	1B-	1d	.	.	2B-	2d	.
.	.	.	.	.	.	.	4cc	.	.	.	.	.	.	.	.
.	[2B-	.	.	.	.	.	2dd	.	.	.	.	2G	[2G	[2d	2d
.	.	.	.	.	.	.	.	4A	.	.	.	.	.	.	.
=18	=18	=18	=18	=18	=18	=18	=18	=18	=18	=18	=18	=18	=18	=18	=18
1r	4B-]	0r	1r	0GG	0d	2r	1g	2B-	1B-	1B-	0r	2G	4G]	4d]	2d
.	4c	.	.	.	.	.	.	.	.	.	.	.	4A	4c	.
.	2d	.	.	.	.	2G	.	2BB-	.	.	.	2.GG	4B-	4B-	2d
.	.	.	.	.	.	.	.	.	.	.	.	.	4c	4A	.
1G	1G	.	1b-	.	.	2.B-	1r	1BB-	1r	1B-	.	.	2d	1G	2g
.	.	.	.	.	.	.	.	.	.	.	.	4AA	.	.	.
.	.	.	.	.	.	.	.	.	.	.	.	4BB-	2G	.	2d
.	.	.	.	.	.	4A	.	.	.	.	.	4C	.	.	.
=19	=19	=19	=19	=19	=19	=19	=19	=19	=19	=19	=19	=19	=19	=19	=19
1F	0r	1r	2a	0r	1.d	0F	1r	0r	2r	0f	1.a	1.D	0r	2r	2f
.	.	.	2.f	.	.	.	.	.	2D	.	.	.	.	2A	2.d
2D	.	1f	.	.	.	.	1a	.	2F	.	.	.	.	1A	.
.	.	.	4g	.	.	.	.	.	.	.	.	.	.	.	4e
[2A	.	.	2a	.	2A	.	.	.	[2D	.	2f	2D	.	.	4f
.	.	.	.	.	.	.	.	.	.	.	.	.	.	.	4g
=20	=20	=20	=20	=20	=20	=20	=20	=20	=20	=20	=20	=20	=20	=20	=20
4A]	0r	2f	1d	1r	1A	0r	1.a	0r	4D]	1r	0f	1D	2r	2.A	2a
4G	.	.	.	.	.	.	.	.	4E	.	.	.	.	.	.
4F	.	2.d	.	.	.	.	.	.	4F	.	.	.	1A	.	2d
4E	.	.	.	.	.	.	.	.	4G	.	.	.	.	4G	.
[1D	.	.	2r	[1D	1r	.	.	.	2A	[1d	.	1D	.	4F	2r
.	.	4e	.	.	.	.	.	.	.	.	.	.	.	4E	.
.	.	2f	2dd	.	.	.	2f	.	2D	.	.	.	2A	2D	2a
=21	=21	=21	=21	=21	=21	=21	=21	=21	=21	=21	=21	=21	=21	=21	=21
1D]	0r	2.B-	2dd	2D]	1r	1d	0b-	1.G	2r	2d]	1.d	0GG	2d	2r	2b-
.	.	.	2.b-	2D	.	.	.	.	2G	2d	.	.	1D	2d	2.g
.	.	4c	.	.	.	.	.	.	.	.	.	.	.	.	.
1GG	.	1d	.	2.G	1B-	1d	.	.	2B-	2d	.	.	.	2d	.
.	.	.	4cc	.	.	.	.	.	.	.	.	.	.	.	4a
.	.	.	2dd	.	.	.	.	2G	[2G	[2d	2d	.	2D	2d	4b-
.	.	.	.	4A	.	.	.	.	.	.	.	.	.	.	4cc
=22	=22	=22	=22	=22	=22	=22	=22	=22	=22	=22	=22	=22	=22	=22	=22
0GG	0d	2r	1g	2B-	1B-	1B-	0r	2G	4G]	4d]	2d	2r	1G	2.d	2dd
.	.	.	.	.	.	.	.	.	4A	4c	.	.	.	.	.
.	.	2G	.	2BB-	.	.	.	2.GG	4B-	4B-	2d	2G	.	.	2g
.	.	.	.	.	.	.	.	.	4c	4A	.	.	.	4c	.
.	.	2.B-	1r	1BB-	1r	1B-	.	.	2d	1G	2g	2B-	1r	4B-	2r
.	.	.	.	.	.	.	.	4AA	.	.	.	.	.	4A	.
.	.	.	.	.	.	.	.	4BB-	2G	.	2d	2B-	.	2G	[2dd
.	.	4A	.	.	.	.	.	4C	.	.	.	.	.	.	.
=23	=23	=23	=23	=23	=23	=23	=23	=23	=23	=23	=23	=23	=23	=23	=23
0r	1.d	0F	1r	0r	2r	0f	1.a	1.D	0r	2r	2f	1.A	2r	2.F	2dd]
.	.	.	.	.	2D	.	.	.	.	2A	2.d	.	2A	.	2dd
.	.	.	.	.	.	.	.	.	.	.	.	.	.	4G	.
.	.	.	1a	.	2F	.	.	.	.	1A	.	.	2A	1A	1ff
.	.	.	.	.	.	.	.	.	.	.	4e	.	.	.	.
.	2A	.	.	.	[2D	.	2f	2D	.	.	4f	2D	[2A	.	.
.	.	.	.	.	.	.	.	.	.	.	4g	.	.	.	.
=24	=24	=24	=24	=24	=24	=24	=24	=24	=24	=24	=24	=24	=24	=24	=24
1r	1A	0r	1.a	0r	4D]	1r	0f	1D	2r	2.A	2a	2.D	4A]	1D	2r
.	.	.	.	.	4E	.	.	.	.	.	.	.	4G	.	.
.	.	.	.	.	4F	.	.	.	1A	.	2d	.	4F	.	2dd
.	.	.	.	.	4G	.	.	.	.	4G	.	4E	4E	.	.
[1D	1r	.	.	.	2A	[1d	.	1D	.	4F	2r	1F	2D	1r	2dd
.	.	.	.	.	.	.	.	.	.	4E	.	.	.	.	.
.	.	.	2f	.	2D	.	.	.	2A	2D	2a	.	2F	.	2dd
=25	=25	=25	=25	=25	=25	=25	=25	=25	=25	=25	=25	=25	=25	=25	=25
2D]	1r	1d	0b-	1.G	2r	2d]	1.d	0GG	2d	2r	2b-	2.BB-	1.G	1r	2.b-
2D	.	.	.	.	2G	2d	.	.	1D	2d	2.g	.	.	.	.
.	.	.	.	.	.	.	.	.	.	.	.	4C	.	.	4g
2.G	1B-	1d	.	.	2B-	2d	.	.	.	2d	.	1D	.	1d	[1g
.	.	.	.	.	.	.	.	.	.	.	4a	.	.	.	.
.	.	.	.	2G	[2G	[2d	2d	.	2D	2d	4b-	.	2G	.	.
4A	.	.	.	.	.	.	.	.	.	.	4cc	.	.	.	.
=26	=26	=26	=26	=26	=26	=26	=26	=26	=26	=26	=26	=26	=26	=26	=26
2B-	1B-	1B-	0r	2G	4G]	4d]	2d	2r	1G	2.d	2dd	0GG	0G	1.d	1g]
.	.	.	.	.	4A	4c	.	.	.	.	.	.	.	.	.
2BB-	.	.	.	2.GG	4B-	4B-	2d	2G	.	.	2g	.	.	.	.
.	.	.	.	.	4c	4A	.	.	.	4c	.	.	.	.	.
1BB-	1r	1B-	.	.	2d	1G	2g	2B-	1r	4B-	2r	.	.	.	1r
.	.	.	.	4AA	.	.	.	.	.	4A	.	.	.	.	.
.	.	.	.	4BB-	2G	.	2d	2B-	.	2G	[2dd	.	.	2d	.
.	.	.	.	4C	.	.	.	.	.	.	.	.	.	.	.
=27	=27	=27	=27	=27	=27	=27	=27	=27	=27	=27	=27	=27	=27	=27	=27
0r	2r	0f	1.a	1.D	0r	2r	2f	1.A	2r	2.F	2dd]	0r	0r	2d	1r
.	2D	.	.	.	.	2A	2.d	.	2A	.	2dd	.	.	2d	.
.	.	.	.	.	.	.	.	.	.	4G	.	.	.	.	.
.	2F	.	.	.	.	1A	.	.	2A	1A	1ff	.	.	1d	2r
.	.	.	.	.	.	.	4e	.	.	.	.	.	.	.	.
.	[2D	.	2f	2D	.	.	4f	2D	[2A	.	.	.	.	.	2a
.	.	.	.	.	.	.	4g	.	.	.	.	.	.	.	.
=28	=28	=28	=28	=28	=28	=28	=28	=28	=28	=28	=28	=28	=28	=28	=28
0r	4D]	1r	0f	1D	2r	2.A	2a	2.D	4A]	1D	2r	0r	1A	0f	2a
.	4E	.	.	.	.	.	.	.	4G	.	.	.	.	.	.
.	4F	.	.	.	1A	.	2d	.	4F	.	2dd	.	.	.	2a
.	4G	.	.	.	.	4G	.	4E	4E	.	.	.	.	.	.
.	2A	[1d	.	1D	.	4F	2r	1F	2D	1r	2dd	.	2A	.	2f
.	.	.	.	.	.	4E	.	.	.	.	.	.	.	.	.
.	2D	.	.	.	2A	2D	2a	.	2F	.	2dd	.	2A	.	2d
=29	=29	=29	=29	=29	=29	=29	=29	=29	=29	=29	=29	=29	=29	=29	=29
1.G	2r	2d]	1.d	0GG	2d	2r	2b-	2.BB-	1.G	1r	2.b-	1GG	1.G	0B-	0d
.	2G	2d	.	.	1D	2d	2.g	.	.	.	.	.	.	.	.
.	.	.	.	.	.	.	.	4C	.	.	4g	.	.	.	.
.	2B-	2d	.	.	.	2d	.	1D	.	1d	[1g	2GG	.	.	.
.	.	.	.	.	.	.	4a	.	.	.	.	.	.	.	.
2G	[2G	[2d	2d	.	2D	2d	4b-	.	2G	.	.	[2GG	2G	.	.
.	.	.	.	.	.	.	4cc	.	.	.	.	.	.	.	.
=30	=30	=30	=30	=30	=30	=30	=30	=30	=30	=30	=30	=30	=30	=30	=30
2G	4G]	4d]	2d	2r	1G	2.d	2dd	0GG	0G	1.d	1g]	4GG]	1B-	1r	1dd
.	4A	4c	.	.	.	.	.	.	.	.	.	4AA	.	.	.
2.GG	4B-	4B-	2d	2G	.	.	2g	.	.	.	.	4BB-	.	.	.
.	4c	4A	.	.	.	4c	.	.	.	.	.	4C	.	.	.
.	2d	1G	2g	2B-	1r	4B-	2r	.	.	.	1r	1D	2.B-	1B-	1b-
4AA	.	.	.	.	.	4A	.	.	.	.	.	.	.	.	.
4BB-	2G	.	2d	2B-	.	2G	[2dd	.	.	2d	.	.	.	.	.
4C	.	.	.	.	.	.	.	.	.	.	.	.	4A	.	.
=31	=31	=31	=31	=31	=31	=31	=31	=31	=31	=31	=31	=31	=31	=31	=31
1.D	0r	2r	2f	1.A	2r	2.F	2dd]	0r	0r	2d	1r	2r	0F	1.f	1r
.	.	2A	2.d	.	2A	.	2dd	.	.	2d	.	2D	.	.	.
.	.	.	.	.	.	4G	.	.	.	.	.	.	.	.	.
.	.	1A	.	.	2A	1A	1ff	.	.	1d	2r	2D	.	.	[1a
.	.	.	4e	.	.	.	.	.	.	.	.	.	.	.	.
2D	.	.	4f	2D	[2A	.	.	.	.	.	2a	[2D	.	2f	.
.	.	.	4g	.	.	.	.	.	.	.	.	.	.	.	.
=32	=32	=32	=32	=32	=32	=32	=32	=32	=32	=32	=32	=32	=32	=32	=32
1D	2r	2.A	2a	2.D	4A]	1D	2r	0r	1A	0f	2a	4D]	0r	1f	1a]
.	.	.	.	.	4G	.	.	.	.	.	.	4E	.	.	.
.	1A	.	2d	.	4F	.	2dd	.	.	.	2a	4F	.	.	.
.	.	4G	.	4E	4E	.	.	.	.	.	.	4G	.	.	.
1D	.	4F	2r	1F	2D	1r	2dd	.	2A	.	2f	1A	.	1r	1a
.	.	4E	.	.	.	.	.	.	.	.	.	.	.	.	.
.	2A	2D	2a	.	2F	.	2dd	.	2A	.	2d	.	.	.	.
=33	=33	=33	=33	=33	=33	=33	=33	=33	=33	=33	=33	=33	=33	=33	=33
0GG	2d	2r	2b-	2.BB-	1.G	1r	2.b-	1GG	1.G	0B-	0d	0r	1B-	1.d	1d
.	1D	2d	2.g	.	.	.	.	.	.	.	.	.	.	.	.
.	.	.	.	4C	.	.	4g	.	.	.	.	.	.	.	.
.	.	2d	.	1D	.	1d	[1g	2GG	.	.	.	.	2B-	.	[1d
.	.	.	4a	.	.	.	.	.	.	.	.	.	.	.	.
.	2D	2d	4b-	.	2G	.	.	[2GG	2G	.	.	.	2B-	2B-	.
.	.	.	4cc	.	.	.	.	.	.	.	.	.	.	.	.
=34	=34	=34	=34	=34	=34	=34	=34	=34	=34	=34	=34	=34	=34	=34	=34
2r	1G	2.d	2dd	0GG	0G	1.d	1g]	4GG]	1B-	1r	1dd	1.G	1B-	0B-	1d]
.	.	.	.	.	.	.	.	4AA	.	.	.	.	.	.	.
2G	.	.	2g	.	.	.	.	4BB-	.	.	.	.	.	.	.
.	.	4c	.	.	.	.	.	4C	.	.	.	.	.	.	.
2B-	1r	4B-	2r	.	.	.	1r	1D	2.B-	1B-	1b-	.	1r	.	1r
.	.	4A	.	.	.	.	.	.	.	.	.	.	.	.	.
2B-	.	2G	[2dd	.	.	2d	.	.	.	.	.	2D	.	.	.
.	.	.	.	.	.	.	.	.	4A	.	.	.	.	.	.
=35	=35	=35	=35	=35	=35	=35	=35	=35	=35	=35	=35	=35	=35	=35	=35
1.A	2r	2.F	2dd]	0r	0r	2d	1r	2r	0F	1.f	1r	0D	2r	1r	1.f
.	2A	.	2dd	.	.	2d	.	2D	.	.	.	.	2A	.	.
.	.	4G	.	.	.	.	.	.	.	.	.	.	.	.	.
.	2A	1A	1ff	.	.	1d	2r	2D	.	.	[1a	.	2.F	[1A	.
2D	[2A	.	.	.	.	.	2a	[2D	.	2f	.	.	.	.	2f
.	.	.	.	.	.	.	.	.	.	.	.	.	4G	.	.
=36	=36	=36	=36	=36	=36	=36	=36	=36	=36	=36	=36	=36	=36	=36	=36
2.D	4A]	1D	2r	0r	1A	0f	2a	4D]	0r	1f	1a]	0D	1A	2A]	1f
.	4G	.	.	.	.	.	.	4E	.	.	.	.	.	.	.
.	4F	.	2dd	.	.	.	2a	4F	.	.	.	.	.	2A	.
4E	4E	.	.	.	.	.	.	4G	.	.	.	.	.	.	.
1F	2D	1r	2dd	.	2A	.	2f	1A	.	1r	1a	.	1r	[1d	1f
.	2F	.	2dd	.	2A	.	2d	.	.	.	.	.	.	.	.
=37	=37	=37	=37	=37	=37	=37	=37	=37	=37	=37	=37	=37	=37	=37	=37
2.BB-	1.G	1r	2.b-	1GG	1.G	0B-	0d	0r	1B-	1.d	1d	1G	2r	1d]	2d
.	.	.	.	.	.	.	.	.	.	.	.	.	2G	.	2.g
4C	.	.	4g	.	.	.	.	.	.	.	.	.	.	.	.
1D	.	1d	[1g	2GG	.	.	.	.	2B-	.	[1d	2r	2B-	2d	.
.	.	.	.	.	.	.	.	.	.	.	.	.	.	.	4a
.	2G	.	.	[2GG	2G	.	.	.	2B-	2B-	.	2G	2G	[2d	4b-
.	.	.	.	.	.	.	.	.	.	.	.	.	.	.	4cc
=38	=38	=38	=38	=38	=38	=38	=38	=38	=38	=38	=38	=38	=38	=38	=38
0GG	0G	1.d	1g]	4GG]	1B-	1r	1dd	1.G	1B-	0B-	1d]	1G	1d	4d]	1dd
.	.	.	.	4AA	.	.	.	.	.	.	.	.	.	4c	.
.	.	.	.	4BB-	.	.	.	.	.	.	.	.	.	2.B-	.
.	.	.	.	4C	.	.	.	.	.	.	.	.	.	.	.
.	.	.	1r	1D	2.B-	1B-	1b-	.	1r	.	1r	1B-	2B-	.	2r
.	.	.	.	.	.	.	.	.	.	.	.	.	.	4A	.
.	.	2d	.	.	.	.	.	2D	.	.	.	.	[2d	2G	2dd
.	.	.	.	.	4A	.	.	.	.	.	.	.	.	.	.
=39	=39	=39	=39	=39	=39	=39	=39	=39	=39	=39	=39	=39	=39	=39	=39
0r	0r	2d	1r	2r	0F	1.f	1r	0D	2r	1r	1.f	0A	2d]	0F	2dd
.	.	2d	.	2D	.	.	.	.	2A	.	.	.	4c	.	1ff
.	.	.	.	.	.	.	.	.	.	.	.	.	4B-	.	.
.	.	1d	2r	2D	.	.	[1a	.	2.F	[1A	.	.	1A	.	.
.	.	.	2a	[2D	.	2f	.	.	.	.	2f	.	.	.	2dd
.	.	.	.	.	.	.	.	.	4G	.	.	.	.	.	.
=40	=40	=40	=40	=40	=40	=40	=40	=40	=40	=40	=40	=40	=40	=40	=40
0r	1A	0f	2a	4D]	0r	1f	1a]	0D	1A	2A]	1f	0r	0r	0r	1dd
.	.	.	.	4E	.	.	.	.	.	.	.	.	.	.	.
.	.	.	2a	4F	.	.	.	.	.	2A	.	.	.	.	.
.	.	.	.	4G	.	.	.	.	.	.	.	.	.	.	.
.	2A	.	2f	1A	.	1r	1a	.	1r	[1d	1f	.	.	.	1r
.	2A	.	2d	.	.	.	.	.	.	.	.	.	.	.	.
=41	=41	=41	=41	=41	=41	=41	=41	=41	=41	=41	=41	=41	=41	=41	=41
!	!	!	!	!	!	!	!	!	!	!	!	!	!	!	!LO:TX:Z=12:t=Ending of the piece unclear; here the dux voices return to the beginning.
1GG	1.G	0B-	0d	0r	1B-	1.d	1d	1G	2r	1d]	2d	0G	0G	0d	0g
.	.	.	.	.	.	.	.	.	2G	.	2.g	.	.	.	.
2GG	.	.	.	.	2B-	.	[1d	2r	2B-	2d	.	.	.	.	.
.	.	.	.	.	.	.	.	.	.	.	4a	.	.	.	.
[2GG	2G	.	.	.	2B-	2B-	.	2G	2G	[2d	4b-	.	.	.	.
.	.	.	.	.	.	.	.	.	.	.	4cc	.	.	.	.
=42	=42	=42	=42	=42	=42	=42	=42	=42	=42	=42	=42	=42	=42	=42	=42
4GG]	1B-	1r	1dd	1.G	1B-	0B-	1d]	1G	1d	4d]	1dd	1G	1G	1d	1g
4AA	.	.	.	.	.	.	.	.	.	4c	.	.	.	.	.
4BB-	.	.	.	.	.	.	.	.	.	2.B-	.	.	.	.	.
4C	.	.	.	.	.	.	.	.	.	.	.	.	.	.	.
1D	2.B-	1B-	1b-	.	1r	.	1r	1B-	2B-	.	2r	1G	1G	1d	1g
.	.	.	.	.	.	.	.	.	.	4A	.	.	.	.	.
.	.	.	.	2D	.	.	.	.	[2d	2G	2dd	.	.	.	.
.	4A	.	.	.	.	.	.	.	.	.	.	.	.	.	.
=43	=43	=43	=43	=43	=43	=43	=43	=43	=43	=43	=43	=43	=43	=43	=43
2r	0F	1.f	1r	0D	2r	1r	1.f	0A	2d]	0F	2dd	0D	1.d	0f	0a
2D	.	.	.	.	2A	.	.	.	4c	.	1ff	.	.	.	.
.	.	.	.	.	.	.	.	.	4B-	.	.	.	.	.	.
2D	.	.	[1a	.	2.F	[1A	.	.	1A	.	.	.	.	.	.
[2D	.	2f	.	.	.	.	2f	.	.	.	2dd	.	2d	.	.
.	.	.	.	.	4G	.	.	.	.	.	.	.	.	.	.
=44	=44	=44	=44	=44	=44	=44	=44	=44	=44	=44	=44	=44	=44	=44	=44
4D]	0r	1f	1a]	0D	1A	2A]	1f	0r	0r	0r	1dd	0D	0d	0f	0a
4E	.	.	.	.	.	.	.	.	.	.	.	.	.	.	.
4F	.	.	.	.	.	2A	.	.	.	.	.	.	.	.	.
4G	.	.	.	.	.	.	.	.	.	.	.	.	.	.	.
1A	.	1r	1a	.	1r	[1d	1f	.	.	.	1r	.	.	.	.
=45	=45	=45	=45	=45	=45	=45	=45	=45	=45	=45	=45	=45	=45	=45	=45
0r	1B-	1.d	1d	1G	2r	1d]	2d	0G	0G	0d	0g	0GG	1d	0g	0b-
.	.	.	.	.	2G	.	2.g	.	.	.	.	.	.	.	.
.	2B-	.	[1d	2r	2B-	2d	.	.	.	.	.	.	2d	.	.
.	.	.	.	.	.	.	4a	.	.	.	.	.	.	.	.
.	2B-	2B-	.	2G	2G	[2d	4b-	.	.	.	.	.	[2B-	.	.
.	.	.	.	.	.	.	4cc	.	.	.	.	.	.	.	.
=46	=46	=46	=46	=46	=46	=46	=46	=46	=46	=46	=46	=46	=46	=46	=46
1.G	1B-	0B-	1d]	1G	1d	4d]	1dd	1G	1G	1d	1g	1r	4B-]	0r	1r
.	.	.	.	.	.	4c	.	.	.	.	.	.	4c	.	.
.	.	.	.	.	.	2.B-	.	.	.	.	.	.	2d	.	.
.	1r	.	1r	1B-	2B-	.	2r	1G	1G	1d	1g	1G	1G	.	1b-
.	.	.	.	.	.	4A	.	.	.	.	.	.	.	.	.
2D	.	.	.	.	[2d	2G	2dd	.	.	.	.	.	.	.	.
=47	=47	=47	=47	=47	=47	=47	=47	=47	=47	=47	=47	=47	=47	=47	=47
0D	2r	1r	1.f	0A	2d]	0F	2dd	0D	1.d	0f	0a	1F	0r	1r	2a
.	2A	.	.	.	4c	.	1ff	.	.	.	.	.	.	.	2.f
.	.	.	.	.	4B-	.	.	.	.	.	.	.	.	.	.
.	2.F	[1A	.	.	1A	.	.	.	.	.	.	2D	.	1f	.
.	.	.	.	.	.	.	.	.	.	.	.	.	.	.	4g
.	.	.	2f	.	.	.	2dd	.	2d	.	.	[2A	.	.	2a
.	4G	.	.	.	.	.	.	.	.	.	.	.	.	.	.
=48	=48	=48	=48	=48	=48	=48	=48	=48	=48	=48	=48	=48	=48	=48	=48
0D	1A	2A]	1f	0r	0r	0r	1dd	0D	0d	0f	0a	4A]	0r	2f	1d
.	.	.	.	.	.	.	.	.	.	.	.	4G	.	.	.
.	.	2A	.	.	.	.	.	.	.	.	.	4F	.	2.d	.
.	.	.	.	.	.	.	.	.	.	.	.	4E	.	.	.
.	1r	[1d	1f	.	.	.	1r	.	.	.	.	[1D	.	.	2r
.	.	.	.	.	.	.	.	.	.	.	.	.	.	4e	.
.	.	.	.	.	.	.	.	.	.	.	.	.	.	2f	2dd
=49	=49	=49	=49	=49	=49	=49	=49	=49	=49	=49	=49	=49	=49	=49	=49
1G	2r	1d]	2d	0G	0G	0d	0g	0GG	1d	0g	0b-	1D]	0r	2.B-	2dd
.	2G	.	2.g	.	.	.	.	.	.	.	.	.	.	.	2.b-
.	.	.	.	.	.	.	.	.	.	.	.	.	.	4c	.
2r	2B-	2d	.	.	.	.	.	.	2d	.	.	1GG	.	1d	.
.	.	.	4a	.	.	.	.	.	.	.	.	.	.	.	4cc
2G	2G	[2d	4b-	.	.	.	.	.	[2B-	.	.	.	.	.	2dd
.	.	.	4cc	.	.	.	.	.	.	.	.	.	.	.	.
=50	=50	=50	=50	=50	=50	=50	=50	=50	=50	=50	=50	=50	=50	=50	=50
1G	1d	4d]	1dd	1G	1G	1d	1g	1r	4B-]	0r	1r	0GG	0d	2r	1g
.	.	4c	.	.	.	.	.	.	4c	.	.	.	.	.	.
.	.	2.B-	.	.	.	.	.	.	2d	.	.	.	.	2G	.
1B-	2B-	.	2r	1G	1G	1d	1g	1G	1G	.	1b-	.	.	2.B-	1r
.	.	4A	.	.	.	.	.	.	.	.	.	.	.	.	.
.	[2d	2G	2dd	.	.	.	.	.	.	.	.	.	.	.	.
.	.	.	.	.	.	.	.	.	.	.	.	.	.	4A	.
=51	=51	=51	=51	=51	=51	=51	=51	=51	=51	=51	=51	=51	=51	=51	=51
0A	2d]	0F	2dd	0D	1.d	0f	0a	1F	0r	1r	2a	0r	1.d	0F	1r
.	4c	.	1ff	.	.	.	.	.	.	.	2.f	.	.	.	.
.	4B-	.	.	.	.	.	.	.	.	.	.	.	.	.	.
.	1A	.	.	.	.	.	.	2D	.	1f	.	.	.	.	1a
.	.	.	.	.	.	.	.	.	.	.	4g	.	.	.	.
.	.	.	2dd	.	2d	.	.	[2A	.	.	2a	.	2A	.	.
=52	=52	=52	=52	=52	=52	=52	=52	=52	=52	=52	=52	=52	=52	=52	=52
0r	0r	0r	1dd	0D	0d	0f	0a	4A]	0r	2f	1d	1r	1A	0r	1.a
.	.	.	.	.	.	.	.	4G	.	.	.	.	.	.	.
.	.	.	.	.	.	.	.	4F	.	2.d	.	.	.	.	.
.	.	.	.	.	.	.	.	4E	.	.	.	.	.	.	.
.	.	.	1r	.	.	.	.	[1D	.	.	2r	[1D	1r	.	.
.	.	.	.	.	.	.	.	.	.	4e	.	.	.	.	.
.	.	.	.	.	.	.	.	.	.	2f	2dd	.	.	.	2f
=53	=53	=53	=53	=53	=53	=53	=53	=53	=53	=53	=53	=53	=53	=53	=53
0G	0G	0d	0g	0GG	1d	0g	0b-	1D]	0r	2.B-	2dd	2D]	1r	1d	0b-
.	.	.	.	.	.	.	.	.	.	.	2.b-	2D	.	.	.
.	.	.	.	.	.	.	.	.	.	4c	.	.	.	.	.
.	.	.	.	.	2d	.	.	1GG	.	1d	.	2.G	1B-	1d	.
.	.	.	.	.	.	.	.	.	.	.	4cc	.	.	.	.
.	.	.	.	.	[2B-	.	.	.	.	.	2dd	.	.	.	.
.	.	.	.	.	.	.	.	.	.	.	.	4A	.	.	.
=54	=54	=54	=54	=54	=54	=54	=54	=54	=54	=54	=54	=54	=54	=54	=54
1G	1G	1d	1g	1r	4B-]	0r	1r	0GG	0d	2r	1g	2B-	1B-	1B-	0r
.	.	.	.	.	4c	.	.	.	.	.	.	.	.	.	.
.	.	.	.	.	2d	.	.	.	.	2G	.	2BB-	.	.	.
1G	1G	1d	1g	1G	1G	.	1b-	.	.	2.B-	1r	1BB-	1r	1B-	.
.	.	.	.	.	.	.	.	.	.	4A	.	.	.	.	.
=55	=55	=55	=55	=55	=55	=55	=55	=55	=55	=55	=55	=55	=55	=55	=55
0D	1.d	0f	0a	1F	0r	1r	2a	0r	1.d	0F	1r	0r	2r	0f	1.a
.	.	.	.	.	.	.	2.f	.	.	.	.	.	2D	.	.
.	.	.	.	2D	.	1f	.	.	.	.	1a	.	2F	.	.
.	.	.	.	.	.	.	4g	.	.	.	.	.	.	.	.
.	2d	.	.	[2A	.	.	2a	.	2A	.	.	.	[2D	.	2f
=56	=56	=56	=56	=56	=56	=56	=56	=56	=56	=56	=56	=56	=56	=56	=56
0D	[0d	0f	0a	4A]	0r	2f	1d	1r	1A	0r	1.a	0r	4D]	1r	0f
.	.	.	.	4G	.	.	.	.	.	.	.	.	4E	.	.
.	.	.	.	4F	.	2.d	.	.	.	.	.	.	4F	.	.
.	.	.	.	4E	.	.	.	.	.	.	.	.	4G	.	.
.	.	.	.	[1D	.	.	2r	[1D	1r	.	.	.	2A	[1d	.
.	.	.	.	.	.	4e	.	.	.	.	.	.	.	.	.
.	.	.	.	.	.	2f	2dd	.	.	.	2f	.	2D	.	.
=57	=57	=57	=57	=57	=57	=57	=57	=57	=57	=57	=57	=57	=57	=57	=57
[0GG	0d_	[0g	[0b-	1D]	0r	2.B-	2dd	2D]	1r	[0d	[0b-	1.G	2r	2d]	[0d
.	.	.	.	.	.	.	2.b-	2D	.	.	.	.	2G	2d	.
.	.	.	.	.	.	4c	.	.	.	.	.	.	.	.	.
.	.	.	.	1GG	.	[1d	.	2.G	1B-	.	.	.	2B-	2d	.
.	.	.	.	.	.	.	4cc	.	.	.	.	.	.	.	.
.	.	.	.	.	.	.	2dd	.	.	.	.	2G	[2G	[2d	.
.	.	.	.	.	.	.	.	4A	.	.	.	.	.	.	.
=58	=58	=58	=58	=58	=58	=58	=58	=58	=58	=58	=58	=58	=58	=58	=58
0GG_	0d_	0g_	0b-_	[0GG	[0d	0d_	[0g	2B-	[0B-	0d]	0b-_	2G	4G]	4d]	0d_
.	.	.	.	.	.	.	.	.	.	.	.	.	4A	4c	.
.	.	.	.	.	.	.	.	2BB-	.	.	.	2.GG	4B-	4B-	.
.	.	.	.	.	.	.	.	.	.	.	.	.	4c	4A	.
.	.	.	.	.	.	.	.	[1BB-	.	.	.	.	2d	[1G	.
.	.	.	.	.	.	.	.	.	.	.	.	4AA	.	.	.
.	.	.	.	.	.	.	.	.	.	.	.	4BB-	[2G	.	.
.	.	.	.	.	.	.	.	.	.	.	.	4C	.	.	.
=59	=59	=59	=59	=59	=59	=59	=59	=59	=59	=59	=59	=59	=59	=59	=59
0GG]	0d]	0g]	0b-]	0GG]	0d]	0d]	0g]	0BB-]	0B-]	0d	0b-]	0D	0G]	0G]	0d]
==	==	==	==	==	==	==	==	==	==	==	==	==	==	==	==
*-	*-	*-	*-	*-	*-	*-	*-	*-	*-	*-	*-	*-	*-	*-	*-
!!!system-decoration: [(s1,s2,s3,s4)][(s5,s6,s7,s8)][(s9,s10,s11,s12)][(s13,s14,s15,s16)]
!!!ENC: Jesse Rodin
!!!END: 2020/10/24
!!!EED: Jesse Rodin
!!!EEV: 2021/04/14
!!attribution-level@Jos: 4b (almost certainly by another composer [double question mark])
!!!ONB: Translated from MusicXML and edited on 2021/04/14 by Craig Sapp
!!muse2ps: C^@{COA}??\n@{SCT}^i2I150v120,120,120,135,120,120,120,135,120,120,120,135,120,120,120,105s^[(....)][(....)][(....)][(....)]^f
